X:1
T:First Night in Leadville -- Reel
R:reel
N:164
N:I suspect the neutrals in the second part should be sharps
B:Ryan's Mammoth Collection
Z:Contributed by Ray Davies,  ray:davies99.freeserve.co.uk
M:2/4
L:1/16
K:E
uE2|\
.E2(GB) .e2(fe) | defg .a2(ga) | bgaf gefd | Bagf ecBG |
.E2(GB) .e2(ge) | defg .a2(ga) | bgaf gefd | Bagf e2::
.f{c}.B((3B=AB) .g{c}.B((3BAB) | aBgB .f.B((3B=AB) |\
efga bagf |Bagf ecBG |
.E2(GB) .e2(fe) | defg .a2(ga) | bgaf gefd | Bagf e2:|
